apps/mobile/assets/icons/phosphor/mouse-scroll.svg

<svg
  height="32"
  viewBox="0 0 256 256"
  width="32"
  xmlns="http://www.w3.org/2000/svg"
>
  <path
    d="m144 16h-32a64.07 64.07 0 0 0 -64 64v96a64.07 64.07 0 0 0 64 64h32a64.07 64.07 0 0 0 64-64v-96a64.07 64.07 0 0 0 -64-64zm48 160a48.05 48.05 0 0 1 -48 48h-32a48.05 48.05 0 0 1 -48-48v-96a48.05 48.05 0 0 1 48-48h32a48.05 48.05 0 0 1 48 48zm-56-92.69v89.38l10.34-10.35a8 8 0 0 1 11.32 11.32l-24 24a8 8 0 0 1 -11.32 0l-24-24a8 8 0 0 1 11.32-11.32l10.34 10.35v-89.38l-10.34 10.35a8 8 0 0 1 -11.32-11.32l24-24a8 8 0 0 1 11.32 0l24 24a8 8 0 0 1 -11.32 11.32z"
  />
</svg>

<svg xmlns="http://www.w3.org/2000/svg" width="32" height="32" fill="#000000" viewBox="0 0 256 256"><path d="M144,16H112A64.07,64.07,0,0,0,48,80v96a64.07,64.07,0,0,0,64,64h32a64.07,64.07,0,0,0,64-64V80A64.07,64.07,0,0,0,144,16Zm48,160a48.05,48.05,0,0,1-48,48H112a48.05,48.05,0,0,1-48-48V80a48.05,48.05,0,0,1,48-48h32a48.05,48.05,0,0,1,48,48ZM136,83.31v89.38l10.34-10.35a8,8,0,0,1,11.32,11.32l-24,24a8,8,0,0,1-11.32,0l-24-24a8,8,0,0,1,11.32-11.32L120,172.69V83.31L109.66,93.66A8,8,0,0,1,98.34,82.34l24-24a8,8,0,0,1,11.32,0l24,24a8,8,0,0,1-11.32,11.32Z"></path></svg>
